dist/assets/images/weather/weather_38.svg

<svg width="86" height="86" viewBox="0 0 86 86" fill="none" xmlns="http://www.w3.org/2000/svg">
<path d="M31.7931 13.3031C36.0697 13.3018 40.2655 14.4673 43.9286 16.6742C47.5917 18.881 50.5833 22.0456 52.581 25.8268C55.0347 24.3923 57.7863 23.5432 60.6217 23.3456C63.4571 23.1479 66.2999 23.6071 68.9289 24.6874C71.5579 25.7677 73.9022 27.44 75.7794 29.5741C77.6567 31.7082 79.0163 34.2467 79.7525 36.992C80.4886 39.7373 80.5815 42.6154 80.0238 45.4025C79.4662 48.1895 78.273 50.8103 76.5373 53.061C74.8015 55.3117 72.5698 57.1316 70.0159 58.3792C67.462 59.6267 64.6548 60.2682 61.8125 60.2537L31.726 60.3344C25.4892 60.3344 19.5079 57.8568 15.0979 53.4468C10.6879 49.0367 8.21033 43.0555 8.21033 36.8187C8.21033 30.582 10.6879 24.6007 15.0979 20.1907C19.5079 15.7806 25.4892 13.3031 31.726 13.3031H31.7931Z" fill="url(#paint0_linear)"/>
<path d="M79.6811 46.755C82.427 36.9271 76.6858 26.734 66.8579 23.9881C57.0299 21.2423 46.8368 26.9834 44.091 36.8114C41.3451 46.6393 47.0863 56.8324 56.9142 59.5783C66.7422 62.3241 76.9352 56.583 79.6811 46.755Z" fill="url(#paint1_linear)"/>
<path d="M48.6706 71.595C48.6706 72.2514 48.5413 72.9015 48.2901 73.5079C48.0389 74.1144 47.6707 74.6655 47.2065 75.1297C46.7423 75.5938 46.1913 75.962 45.5848 76.2132C44.9783 76.4645 44.3283 76.5938 43.6718 76.5938C43.0154 76.5938 42.3654 76.4645 41.7589 76.2132C41.1524 75.962 40.6014 75.5938 40.1372 75.1297C39.673 74.6655 39.3048 74.1144 39.0536 73.5079C38.8024 72.9015 38.6731 72.2514 38.6731 71.595C38.6731 67.2144 42.7043 63.1562 43.6718 63.1562C44.6393 63.1562 48.6706 67.1875 48.6706 71.595Z" fill="#0BAEFF"/>
<defs>
<linearGradient id="paint0_linear" x1="25.8672" y1="62.3365" x2="54.2069" y2="25.6387" gradientUnits="userSpaceOnUse">
<stop stop-color="#F2F2F2"/>
<stop offset="1" stop-color="#CFCFCF"/>
</linearGradient>
<linearGradient id="paint1_linear" x1="69.4413" y1="35.2159" x2="48.0244" y2="53.8437" gradientUnits="userSpaceOnUse">
<stop offset="0.02" stop-color="white"/>
<stop offset="1" stop-color="white" stop-opacity="0"/>
</linearGradient>
</defs>
</svg>

<svg width="86" height="86" fill="none" xmlns="http://www.w3.org/2000/svg"><path d="M31.793 13.303a23.502 23.502 0 0120.788 12.524 18.477 18.477 0 119.231 34.427l-30.086.08a23.516 23.516 0 010-47.03h.067z" fill="url(#paint0_linear)"/><path d="M79.681 46.755c2.746-9.828-2.995-20.021-12.823-22.767-9.828-2.746-20.021 2.995-22.767 12.823-2.746 9.828 2.995 20.021 12.823 22.767 9.828 2.746 20.021-2.995 22.767-12.823z" fill="url(#paint1_linear)"/><path d="M48.67 71.595a4.999 4.999 0 11-9.997 0c0-4.38 4.031-8.439 4.999-8.439.967 0 4.999 4.032 4.999 8.439z" fill="#0BAEFF"/><defs><linearGradient id="paint0_linear" x1="25.867" y1="62.337" x2="54.207" y2="25.639" gradientUnits="userSpaceOnUse"><stop stop-color="#F2F2F2"/><stop offset="1" stop-color="#CFCFCF"/></linearGradient><linearGradient id="paint1_linear" x1="69.441" y1="35.216" x2="48.024" y2="53.844" gradientUnits="userSpaceOnUse"><stop offset=".02" stop-color="#fff"/><stop offset="1" stop-color="#fff" stop-opacity="0"/></linearGradient></defs></svg>
